actions/24/tab-detach.svg

<svg xmlns="http://www.w3.org/2000/svg" viewBox="0 0 24 24" width="24" height="24">
  <defs id="defs3051">
    <style type="text/css" id="current-color-scheme">
      .ColorScheme-Text {
        color:#eff0f1;
      }
      </style>
  </defs>
  <g transform="translate(1,1)">
    <path style="fill:currentColor;fill-opacity:1;stroke:none" d="m3 3v1 14 1h16v-1-12h-1-2-7v-1-2h-1-4m6 0v2h8v-2zm-6 1h4v3h8 2v11h-14z" class="ColorScheme-Text"/>
  </g>
</svg>

<svg xmlns="http://www.w3.org/2000/svg" viewBox="0 0 24 24" width="24" height="24">
  <defs id="defs3051">
    <style type="text/css" id="current-color-scheme">.ColorScheme-Text {color:#fcfcfc;}</style>
  </defs>
  <g transform="translate(1,1)">
    <path style="fill:currentColor;fill-opacity:1;stroke:none" d="m 3,3 v 1 c 0,0 0,9 0,12 0,3 3,3 3,3 h 10 c 0,0 3,0 3,-3 0,-3 0,-10 0,-10 H 18 16 9 V 5 3 H 8 4 m 6,0 v 2 h 8 V 3 Z M 4,4 h 4 v 3 h 8 2 c 0,0 0,7 0,9 0,2 -2,2 -2,2 H 6 C 6,18 4,18 4,16 4,14 4,4 4,4 Z" class="ColorScheme-Text"/>
  </g>
</svg>
